static/img/in-field/spinner-clockwise-dark.svg

<svg width="1088" height="124" viewBox="0 0 1088 124" fill="none" xmlns="http://www.w3.org/2000/svg">
<rect width="1088" height="123" transform="translate(0 0.333374)" fill="#252A2E"/>
<path fill-rule="evenodd" clip-rule="evenodd" d="M509.589 52.5421C504.437 71.7697 515.703 91.4946 534.752 96.5989C552.756 101.423 571.268 91.4619 577.596 74.1231C578.211 72.4389 577.169 70.6503 575.438 70.1863L572.302 69.3461C572.302 69.3461 572.302 69.3461 572.302 69.3461C568.087 85.0778 552.035 94.4453 536.449 90.269C520.863 86.0928 511.645 69.9542 515.86 54.2225C519.786 39.569 533.983 30.4372 548.506 32.6295C550.296 32.8996 552.093 31.8826 552.562 30.1346C553.03 28.3866 551.992 26.5733 550.209 26.2666C532.209 23.1712 514.452 34.3906 509.589 52.5421Z" fill="#019AEB"/>
</svg>

<svg width="1088" height="124" fill="none" xmlns="http://www.w3.org/2000/svg"><path fill="#252A2E" d="M0 .333h1088v123H0z"/><path fill-rule="evenodd" clip-rule="evenodd" d="M509.589 52.542c-5.152 19.228 6.114 38.953 25.163 44.057 18.004 4.824 36.516-5.137 42.844-22.476.615-1.684-.427-3.473-2.158-3.937l-3.136-.84c-4.215 15.732-20.267 25.1-35.853 20.923-15.586-4.176-24.804-20.315-20.589-36.047 3.926-14.653 18.123-23.785 32.646-21.593 1.79.27 3.587-.746 4.056-2.494.468-1.748-.57-3.562-2.353-3.868-18-3.096-35.757 8.124-40.62 26.275z" fill="#019AEB"/></svg>
